!!!ONB: MCCC : ICS0250_00 : Extracted Monophonic Melody
!!!COM: Saint-Saëns, Camille
!!!OTL: Valse mignonne
!!!SCT: Op.104
!!!ODT: 1896///
**kern
*staff1
=1
*clefG2
*k[b-e-a-]
*E-:
*M3/4
4bbb-
4r
4r
=2
4bb-
4r
4r
=3
4r
4.B-
8c
=4
4e-
4c
4d
=5
4f
4.d
8e-
=6
4g
4e-
4f
=7
4a-
4.f
8g
=8
4b-
4b-
4b-
=9
4b-
4b-
4b-
=10
4b-
4a
4ee-
=11
4dd
4.B-
8c
=12
4e-
4c
4d
=13
4f
4.d
8e-
=14
4g
4e-
4f
=15
4a-
4.ff
8gg
=16
4bb-
4bb-
4bb-
=17
4bb-
4bb-
4bb-
=18
4bb-
4aa
4eee-
=19
4ddd
4.bb-
8aa
=20
4aa-
4.cc
8b
=21
4b-
4.gg
8gg-
=22
4ff
4.a-
8g
=23
4g-
4.ee-
8ee-
=24
4ee-
4ee
4e
=25
4.e-
8B-
8c
8e-
=26
8d
8f
8a-
8b-
8dd
8cc
=27
4b-
4.bb-
8aa
=28
4aa-
4.cc
8b
=29
4b-
4.gg
8gg-
=30
4ff
4.a-
8g
=31
4g-
4.ee-
8ee-
=32
4ee-
4ee
4e
=33
4.e-
8B-
8c
8e-
=34
8d
8f
8a-
8b-
8dd
8ff
=35
4ee-
4r
4r
=36
4r
4r
8ee-
8dd
=37
4gg
8ee-
8cc
4b-
=38
8g
8a-
4b-
4e-
=39
2d
4b-[
=40
4b-]
4r
4r
=41
4aa-
8ff
8ee-
4dd
=42
8a-
8b-
4cc
4f
=43
4r
4r
4b-[
=44
4b-]
4r
4r
=45
4eee-
8bb-
8gg
4ee-
=46
8dd
8ee-
4gg
4g
=47
4r
4r
4b-[
=48
4b-]
4r
4r
=49
8a-
8dd
8ff
8aa-
8dd
8ff
=50
8ee-
8gg
8b-
8ee-
8g
8b-
=51
8a-
8cc
8f
8a-
8d
8f
=52
4e-
4r
8eee-
8ddd
=53
8ggg
8eee-
8ddd
8ccc
8ccc
8bb-
=54
8gg
8aa-
8aa
8ccc
8bb-
8ee-
=55
12ee-
12ff
12ee-
4dd
4bb-[
=56
4bb-]
4r
8fff
8eee
=57
8aaa-
8fff
8eee-
8ddd
8ddd
8ccc
=58
8aa-
8bb-
8bb
8ddd
8ccc
8ff
=59
12ff
12gg
12ff
4ee-
4bb-[
=60
4bb-]
4r
8ggg
8eee-
=61
8bbb-
8ggg
8eee-
8ddd
8ddd
8ccc
=62
8ccc
8bb-
8bb-
8aa-
8aa-
8gg
=63
12gg
12aa-
12gg
4ff
4bb-
=64
4bb-
4r
8dd
8ff
=65
8aa-
8ddd
8fff
8aaa-
8ddd
8fff
=66
8eee-
8ggg
8gg
8aa-
8bb-
8ccc
=67
8aa-
8cccc
8ff
8aaa-
8dd
8fff
=68
4eee-
4r
4r
=69
2e-
4e-
=70
2e-
4e-
=71
2e-
4e-
=72
4r
4.ccc
8ddd-[
=73
4ddd-]
4.eee-
8ddd-[
=74
4ddd-]
4.ccc
8bb-
=75
2bb-
4aa-
=76
4r
4.ff
8ee-
=77
2ee-
4dd-
=78
4r
4.aa-
8bb-
=79
2bb-
4ccc
=80
4r
4.ccc
8ddd-[
=81
4ddd-]
4.eee-
8ddd-[
=82
4ddd-]
4.ccc
8bb-
=83
2bb-
4aa-
=84
4r
4.gg
8ff
=85
2ff
4ee-
=86
4r
4.fff
8bb
=87
2bb
4ccc
=88
4r
8r
8eee-
8ddd
8eee-
=89
8r
8eee-
8fff
8eee-
8r
8eee-
=90
8cccc
8eee-
8r
8eee-
8fff
8eee-
=91
8r
8ddd-
8ccc
8ddd-
8r
8ddd-
=92
8bbb-
8ddd-
8r
8ddd-
8eee-
8ddd-
=93
8r
8ccc
8bb
8ccc
8r
8eee-
=94
8eee-
8ddd-
8r
8ddd-
8ddd-
8ccc
=95
8r
8ccc
8ccc
8bb-
8r
8ccc
=96
8bb-
8aa-
8r
8ee-
8dd
8ee-
=97
8r
8ee-
8ff
8ee-
8r
8ee-
=98
8ccc
8ee-
8r
8ee-
8ff
8ee-
=99
8r
8dd-
8cc
8dd-
8r
8dd-
=100
8bb-
8dd-
8r
8dd-
8ee-
8dd-
=101
8r
8cc
8dd-
8dd
8r
8ee-
=102
8ee
8ff
8r
8gg
8aa-
8ddd-
=103
8r
8ddd-
8ddd-
8ccc
8r
8bb-
=104
4aa-
4.a-
8b-
=105
4dd-
4cc
4ee-
=106
4aa-
4.b-
8cc
=107
4ee-
4dd
4ff
=108
4aa-
4r
4r
=109
12e-
12e-
12e-
12c
12c
12c
12d
12d
12d
=110
4f
12d
12d
12d
12d
12d
12e-
=111
12g
12g
12g
12e-
12e-
12e-
12f
12f
12f
=112
4a-
12f
12f
12f
12f
12f
12g
=113
12b-
12cc
12b-
12e-
12cc
12b-
12f
12cc
12b-
=114
12a-
12cc
12b-
12g
12cc
12b-
12f
12cc
12b-
=115
12r
12cc
12b-
12a
12cc
12ee-
12aa
12ccc
12eee-
=116
4ddd
12r
12b-
12B-
12b-
12B-
12c
=117
12e-
12ee-
12e-
12c
12cc
12c
12d
12dd
12d
=118
12f
12ff
12f
12d
12dd
12d
12dd
12d
12e-
=119
12g
12gg
12g
12e-
12ee-
12e-
12f
12ff
12f
=120
12a-
12aa-
12a-
12r
12ccc
12bb-
12r
12ccc
12bb-
=121
12r
12ccc
12bb-
12r
12ccc
12bb-
12r
12ccc
12bb-
=122
12r
12ccc
12bb-
12aa
12ccc
12eee-
12ccc
12fff
12eee-
=123
4ddd
4bb-
4r
=124
4aa-
4cc
4r
=125
4b-
4gg
4r
=126
4ff
4a-
4r
=127
4g-
4ee-
4r
=128
4ee-
4ee
4e
=129
4e-
8r
8B-[
12B-]
12c
12d-
=130
12d
12f
12a-
12b-
12dd
12ff
12aa-
12ddd
12ccc
=131
4bb-
4bb-
4r
=132
4aa-
4a-
4r
=133
4g-
4gg-
4r
=134
4ee
4e
4r
=135
4e-
4ee-
4r
=136
4ee-
4ee
4e
=137
4e-
4r
4r
=138
12d
12a-
12b-
12ff
12dd
12aa-
12bb-
12aa-
12fff
=139
4eee-
4r
4r
=140
4r
4r
8ee-
8dd
=141
4gg
8ee-
8cc
4b-
=142
8g
8a-
4b-
4e-
=143
2d
4b-[
=144
4b-]
4r
4r
=145
4aa-
8ff
8ee-
4dd
=146
8a-
8b-
4cc
4f
=147
4r
4r
4b-[
=148
4b-]
4r
4r
=149
8eee-
8bb-
8gg
8ff
8ff
8ee-
=150
8dd
8ee-
8gg
8ee-
8b-
8g
=151
2f
4b-[
=152
4b-]
4r
8dd
8ff
=153
8aa-
8ddd
8fff
8aaa-
8ddd
8fff
=154
8eee-
8ggg
8bb-
8eee-
8gg
8bb-
=155
8aa-
8ccc
8ff
8aa-
8dd
8ff
=156
8ee-
8gg
8b-
8ee-
8g
8b-
=157
4r
4.ccc
8ddd-[
=158
4ddd-]
4.eee-
8ddd-[
=159
4ddd-]
4.ccc
8bb-
=160
2bb-
4aa-
=161
4r
4.ff
8ee-
=162
2ee-
4dd
=163
4r
4.gg
8aa-
=164
2aa
4bb-
=165
4r
4.ccc
8ddd-[
=166
4ddd-]
4.eee-
8ddd-[
=167
4ddd-]
4.ccc
8bb-
=168
2bb-
4aa-
=169
4r
4.ff
8ee-
=170
2ee-
4dd
=171
4r
4.ff
8gg
=172
2gg
4aa-
=173
4r
8dd
8ee-
8ff
8gg
=174
8gg
8aa-
8bb-
8ccc
8ddd
8eee-
=175
8fff
8ggg
8aaa-
8bbb-
8cccc
8dddd
=176
4eeee-
4r
4r
=177
2.r
=178
4r
4.G
8A-
=179
4B-
4c
4d
=180
4e-
4r
4r
=181
2.r
=182
4r
4.g
8a-
=183
4b-
4cc
4dd
=184
4ee-
4r
4r
=185
2.ee
=186
4ee-
4r
4r
=187
2.e
=188
4e-
2b-[
=189
4b-]
2b-[
=190
4b-]
2b-[
=191
4b-]
2b-[
=192
4b-]
4r
4r
=193
2.r
=194
12r
12e-
12B-
12e-
12f
12a-
12g
12b-
12ee-
=195
12gg
12ee-
12b-
12ee-
12ff
12aa-
12gg
12bb-
12eee-
=196
4bbb-
4r
4r
=197
4dd
4r
4r
=198
4ee-
4r
4r
==
*-
